assets/img/braze_icons/brackets.svg

<svg fill="none" height="24" viewBox="0 0 24 24" width="24" xmlns="http://www.w3.org/2000/svg"><g clip-rule="evenodd" fill="#801ed7" fill-rule="evenodd"><path d="m17.5708 4c0-.55228.4477-1 1-1 1.8153 0 3.286 1.47071 3.286 3.286v4.1568l.8501.8501c.3905.3905.3905 1.0237 0 1.4142l-.8501.8501v4.1568c0 1.8156-1.472 3.286-3.286 3.286-.5523 0-1-.4477-1-1s.4477-1 1-1c.71 0 1.286-.5756 1.286-1.286v-4.571c0-.2652.1054-.5196.2929-.7071l.4359-.4359-.4359-.4359c-.1875-.1875-.2929-.4419-.2929-.7071v-4.571c0-.71071-.5753-1.286-1.286-1.286-.5523 0-1-.44772-1-1z"/><path d="m2.143 6.286c0-1.81529 1.47072-3.286 3.286-3.286.55228 0 1 .44772 1 1s-.44772 1-1 1c-.71072 0-1.286.57528-1.286 1.286v4.571c0 .2652-.10536.5196-.29289.7071l-.4359.4359.4359.4359c.18753.1875.29289.4419.29289.7071v4.571c0 .7107.57528 1.286 1.286 1.286.55228 0 1 .4477 1 1s-.44772 1-1 1c-1.81528 0-3.286-1.4707-3.286-3.286v-4.1568l-.85011-.8501c-.18753-.1875-.29289-.4419-.29289-.7071s.10536-.5196.29289-.7071l.85011-.8501z"/></g></svg>

<svg width="24" height="24" viewBox="0 0 24 24" fill="none" xmlns="http://www.w3.org/2000/svg">
<path fill-rule="evenodd" clip-rule="evenodd" d="M17.5708 4C17.5708 3.44772 18.0185 3 18.5708 3C20.3861 3 21.8568 4.47071 21.8568 6.286V10.4428L22.7069 11.2929C23.0974 11.6834 23.0974 12.3166 22.7069 12.7071L21.8568 13.5572V17.714C21.8568 19.5296 20.3848 21 18.5708 21C18.0185 21 17.5708 20.5523 17.5708 20C17.5708 19.4477 18.0185 19 18.5708 19C19.2808 19 19.8568 18.4244 19.8568 17.714V13.143C19.8568 12.8778 19.9622 12.6234 20.1497 12.4359L20.5856 12L20.1497 11.5641C19.9622 11.3766 19.8568 11.1222 19.8568 10.857V6.286C19.8568 5.57529 19.2815 5 18.5708 5C18.0185 5 17.5708 4.55228 17.5708 4Z" fill="#801ED7"/>
<path fill-rule="evenodd" clip-rule="evenodd" d="M2.143 6.286C2.143 4.47071 3.61372 3 5.429 3C5.98128 3 6.429 3.44772 6.429 4C6.429 4.55228 5.98128 5 5.429 5C4.71828 5 4.143 5.57528 4.143 6.286V10.857C4.143 11.1222 4.03764 11.3766 3.85011 11.5641L3.41421 12L3.85011 12.4359C4.03764 12.6234 4.143 12.8778 4.143 13.143V17.714C4.143 18.4247 4.71828 19 5.429 19C5.98128 19 6.429 19.4477 6.429 20C6.429 20.5523 5.98128 21 5.429 21C3.61372 21 2.143 19.5293 2.143 17.714V13.5572L1.29289 12.7071C1.10536 12.5196 1 12.2652 1 12C1 11.7348 1.10536 11.4804 1.29289 11.2929L2.143 10.4428V6.286Z" fill="#801ED7"/>
</svg>
